;FLAVOR:Marlin
;TIME:4941
;Filament used: 3.88889m
;Layer height: 0.2
;MINX:88.2
;MINY:88.2
;MINZ:0.2
;MAXX:131.8
;MAXY:131.8
;MAXZ:20
;Generated with Cura_SteamEngine 4.8.0
M140 S60
M105
M190 S60
M104 S200
M105
M109 S200
M82 ;absolute extrusion mode
; Ender 3 Custom Start G-code
G92 E0 ; Reset Extruder
G28 ; Home all axes
G1 Z2.0 F3000 ; Move Z Axis up little to prevent scratching of Heat Bed
G1 X0.1 Y20 Z0.3 F5000.0 ; Move to start position
G1 X0.1 Y200.0 Z0.3 F1500.0 E15 ; Draw the first line
G1 X0.4 Y200.0 Z0.3 F5000.0 ; Move to side a little
G1 X0.4 Y20 Z0.3 F1500.0 E30 ; Draw the second line
G92 E0 ; Reset Extruder
G1 Z2.0 F3000 ; Move Z Axis up little to prevent scratching of Heat Bed
G1 X5 Y20 Z0.3 F5000.0 ; Move over to prevent blob squish
G92 E0
G92 E0
G1 F1500 E-6.5
;LAYER_COUNT:100
;LAYER:0
M107
G0 F6000 X88.727 Y88.844 Z0.2
;TYPE:SKIRT
G1 F1500 E0
G1 F1200 X89.139 Y88.489 E0.01809
G1 X89.843 Y88.221 E0.04314
G1 X90.117 Y88.2 E0.05228
G1 X129.883 Y88.2 E1.37491
G1 X130.62 Y88.358 E1.39998
G1 X131.156 Y88.727 E1.42162
G1 X131.511 Y89.139 E1.43971
G1 X131.779 Y89.843 E1.46476
G1 X131.8 Y90.117 E1.4739
G1 X131.8 Y129.883 E2.79652
G1 X131.642 Y130.62 E2.82159
G1 X131.273 Y131.156 E2.84324
G1 X130.861 Y131.511 E2.86133
G1 X130.157 Y131.779 E2.88638
G1 X129.883 Y131.8 E2.89552
G1 X90.117 Y131.8 E4.21814
G1 X89.38 Y131.642 E4.24321
G1 X88.844 Y131.273 E4.26486
G1 X88.489 Y130.861 E4.28294
G1 X88.221 Y130.157 E4.308
G1 X88.2 Y129.883 E4.31714
G1 X88.2 Y90.117 E5.63976
G1 X88.358 Y89.38 E5.66483
G1 X88.727 Y88.844 E5.68647
G0 F6000 X89.127 Y89.01
G1 F1200 X89.694 Y88.665 E5.70855
G1 X90.117 Y88.6 E5.72278
G1 X129.883 Y88.6 E7.04541
G1 X130.527 Y88.757 E7.06745
G1 X130.99 Y89.127 E7.08717
G1 X131.335 Y89.694 E7.10924
G1 X131.4 Y90.117 E7.12348
G1 X131.4 Y129.883 E8.4461
G1 X131.243 Y130.527 E8.46814
G1 X130.873 Y130.99 E8.48786
G1 X130.306 Y131.335 E8.50993
G1 X129.883 Y131.4 E8.52417
G1 X90.117 Y131.4 E9.84679
G1 X89.473 Y131.243 E9.86884
G1 X89.01 Y130.873 E9.88855
G1 X88.665 Y130.306 E9.91062
G1 X88.6 Y129.883 E9.92486
G1 X88.6 Y90.117 E11.24748
G1 X88.757 Y89.473 E11.26953
G1 X89.127 Y89.01 E11.28924
G0 F6000 X89.156 Y89.581
G1 F1200 X89.636 Y89.124 E11.31128
G1 X90.117 Y89 E11.3278
G1 X129.883 Y89 E12.65043
G1 X130.419 Y89.156 E12.66899
G1 X130.876 Y89.636 E12.69104
G1 X131 Y90.117 E12.70756
G1 X131 Y129.883 E14.03018
G1 X130.844 Y130.419 E14.04875
G1 X130.364 Y130.876 E14.07079
G1 X129.883 Y131 E14.08731
G1 X90.117 Y131 E15.40994
G1 X89.581 Y130.844 E15.4285
G1 X89.124 Y130.364 E15.45055
G1 X89 Y129.883 E15.46707
G1 X89 Y90.117 E16.78969
G1 X89.156 Y89.581 E16.80826
G0 F6000 X89.576 Y89.693
G1 F1200 X89.872 Y89.452 E16.82095
G1 X90.117 Y89.4 E16.82928
G1 X129.883 Y89.4 E18.15191
G1 X130.307 Y89.576 E18.16717
G1 X130.548 Y89.872 E18.17987
G1 X130.6 Y90.117 E18.1882
G1 X130.6 Y129.883 E19.51082
G1 X130.424 Y130.307 E19.52609
G1 X130.128 Y130.548 E19.53879
G1 X129.883 Y130.6 E19.54712
G1 X90.117 Y130.6 E20.86974
G1 X89.693 Y130.424 E20.88501
G1 X89.452 Y130.128 E20.8977
G1 X89.4 Y129.883 E20.90603
G1 X89.4 Y90.117 E22.22866
G1 X89.576 Y89.693 E22.24393
G0 F6000 X89.976 Y89.859
G1 F1200 X90.117 Y89.8 E22.24901
G1 X129.883 Y89.8 E23.57163
G1 X130.141 Y89.976 E23.58202
G1 X130.2 Y90.117 E23.5871
G1 X130.2 Y129.883 E24.90973
G1 X130.024 Y130.141 E24.92011
G1 X129.883 Y130.2 E24.9252
G1 X90.117 Y130.2 E26.24782
G1 X89.859 Y130.024 E26.25821
G1 X89.8 Y129.883 E26.26329
G1 X89.8 Y90.117 E27.58591
G1 X89.976 Y89.859 E27.5963
G1 F1500 E21.0963
;MESH:BasicSlot20mm.STL
G0 F6000 X90.81 Y90.81
G0 X90.782 Y129.218
G0 X129.5 Y129.53
G0 X129.8 Y129.8
;TYPE:WALL-OUTER
G1 F1500 E27.5963
G1 F1200 X90.2 Y129.8 E28.9134
G1 X90.2 Y90.2 E30.2305
G1 X129.8 Y90.2 E31.54761
G1 X129.8 Y129.8 E32.86471
G1 F1500 E26.36471
G0 F6000 X129.5 Y129.53
G0 X99.5 Y129.19
G0 X99.5 Y130.665
G0 X100.653 Y119.347
G0 X99.5 Y120.79
G0 X99.8 Y120.2
G1 F1500 E32.86471
G1 F1200 X120.2 Y120.2 E33.54321
G1 X120.2 Y99.8 E34.22172
G1 X99.8 Y99.8 E34.90023
G1 X99.8 Y120.2 E35.57873
G0 F6000 X99.4 Y120.6
;TYPE:WALL-INNER
G1 F1200 X120.6 Y120.6 E36.28385
G1 X120.6 Y99.4 E36.98896
G1 X99.4 Y99.4 E37.69408
G1 X99.4 Y120.6 E38.39919
G1 F1500 E31.89919
G0 F6000 X114.399 Y120.77
G0 X114.399 Y119.335
G0 X130.665 Y120.796
G0 X129.19 Y120.796
G0 X129.4 Y129.4
G1 F1500 E38.39919
G1 F1200 X90.6 Y129.4 E39.68969
G1 X90.6 Y90.6 E40.98018
G1 X129.4 Y90.6 E42.27067
G1 X129.4 Y129.4 E43.56117
G0 F6000 X129.01 Y129.01
;TYPE:SKIN
G1 F1200 X90.99 Y129.01 E44.82572
G1 X90.99 Y90.99 E46.09027
G1 X129.01 Y90.99 E47.35482
G1 X129.01 Y129.01 E48.61937
G1 F1500 E42.11937
G0 F6000 X129.29 Y129.01
G0 X129.19 Y120.74
G0 X130.665 Y120.74
G0 X119.347 Y119.347
G0 X120.79 Y120.74
G0 X120.99 Y120.99
G1 F1500 E48.61937
G1 F1200 X120.99 Y99.01 E49.35043
G1 X99.01 Y99.01 E50.08148
G1 X99.01 Y120.99 E50.81254
G1 X120.99 Y120.99 E51.5436
G1 F1500 E45.0436
G0 F6000 X120.71 Y120.74
G0 X120.77 Y118.423
G0 X119.335 Y118.423
G0 X130.665 Y99.204
G0 X129.19 Y99.204
G0 X129.29 Y91.514
G0 X128.849 Y91.514
G1 F1500 E51.5436
G1 F1200 X128.485 Y91.15 E51.56072
G0 F6000 X127.919 Y91.15
G1 F1200 X128.849 Y92.08 E51.60446
G0 F6000 X128.849 Y92.645
G1 F1200 X127.354 Y91.15 E51.67478
G0 F6000 X126.788 Y91.15
G1 F1200 X128.849 Y93.211 E51.77173
G0 F6000 X128.849 Y93.777
G1 F1200 X126.222 Y91.15 E51.89529
G0 F6000 X125.657 Y91.15
G1 F1200 X128.849 Y94.342 E52.04544
G0 F6000 X128.849 Y94.908
G1 F1200 X125.091 Y91.15 E52.2222
G0 F6000 X124.525 Y91.15
G1 F1200 X128.849 Y95.474 E52.42559
G0 F6000 X128.849 Y96.039
G1 F1200 X123.96 Y91.15 E52.65555
G0 F6000 X123.394 Y91.15
G1 F1200 X128.849 Y96.605 E52.91214
G0 F6000 X128.849 Y97.171
G1 F1200 X122.828 Y91.15 E53.19535
G0 F6000 X122.263 Y91.15
G1 F1200 X128.849 Y97.737 E53.50516
G0 F6000 X128.849 Y98.302
G1 F1200 X121.697 Y91.15 E53.84156
G0 F6000 X121.131 Y91.15
G1 F1200 X128.849 Y98.868 E54.2046
G0 F6000 X128.849 Y99.434
G1 F1200 X120.565 Y91.15 E54.59425
G0 F6000 X120 Y91.15
G1 F1200 X128.849 Y99.999 E55.01048
G0 F6000 X128.849 Y100.565
G1 F1200 X119.434 Y91.15 E55.45333
G0 F6000 X118.868 Y91.15
G1 F1200 X128.849 Y101.131 E55.92281
G0 F6000 X128.849 Y101.696
G1 F1200 X118.303 Y91.15 E56.41886
G0 F6000 X117.737 Y91.15
G1 F1200 X128.849 Y102.262 E56.94153
G0 F6000 X128.849 Y102.828
G1 F1200 X117.171 Y91.15 E57.49083
G0 F6000 X116.606 Y91.15
G1 F1200 X128.849 Y103.393 E58.0667
G0 F6000 X128.849 Y103.959
G1 F1200 X116.04 Y91.15 E58.6692
G0 F6000 X115.474 Y91.15
G1 F1200 X128.849 Y104.525 E59.29832
G0 F6000 X128.849 Y105.09
G1 F1200 X114.909 Y91.15 E59.95401
G0 F6000 X114.343 Y91.15
G1 F1200 X128.849 Y105.656 E60.63633
G0 F6000 X128.849 Y106.222
G1 F1200 X113.777 Y91.15 E61.34527
G0 F6000 X113.212 Y91.15
G1 F1200 X120.911 Y98.849 E61.70741
G0 F6000 X121.149 Y99.087
G1 F1200 X128.849 Y106.787 E62.06959
G0 F6000 X128.849 Y107.353
G1 F1200 X121.149 Y99.653 E62.43178
G0 F6000 X121.149 Y100.218
G1 F1200 X128.849 Y107.919 E62.79399
G0 F6000 X128.849 Y108.485
G1 F1200 X121.149 Y100.784 E63.15619
G0 F6000 X121.149 Y101.35
G1 F1200 X128.849 Y109.05 E63.51838
G0 F6000 X128.849 Y109.616
G1 F1200 X121.149 Y101.916 E63.88056
G0 F6000 X121.149 Y102.481
G1 F1200 X128.849 Y110.182 E64.24277
G0 F6000 X128.849 Y110.747
G1 F1200 X121.149 Y103.047 E64.60496
G0 F6000 X121.149 Y103.613
G1 F1200 X128.849 Y111.313 E64.96714
G0 F6000 X128.849 Y111.879
G1 F1200 X121.149 Y104.178 E65.32935
G0 F6000 X121.149 Y104.744
G1 F1200 X128.849 Y112.444 E65.69153
G0 F6000 X128.849 Y113.01
G1 F1200 X121.149 Y105.31 E66.05372
G0 F6000 X121.149 Y105.875
G1 F1200 X128.849 Y113.576 E66.41592
G0 F6000 X128.849 Y114.141
G1 F1200 X121.149 Y106.441 E66.77811
G0 F6000 X121.149 Y107.007
G1 F1200 X128.849 Y114.707 E67.14029
G0 F6000 X128.849 Y115.273
G1 F1200 X121.149 Y107.572 E67.5025
G0 F6000 X121.149 Y108.138
G1 F1200 X128.849 Y115.838 E67.86469
G0 F6000 X128.849 Y116.404
G1 F1200 X121.149 Y108.704 E68.22687
G0 F6000 X121.149 Y109.269
G1 F1200 X128.849 Y116.97 E68.58908
G0 F6000 X128.849 Y117.535
G1 F1200 X121.149 Y109.835 E68.95126
G0 F6000 X121.149 Y110.401
G1 F1200 X128.849 Y118.101 E69.31345
G0 F6000 X128.849 Y118.667
G1 F1200 X121.149 Y110.966 E69.67565
G0 F6000 X121.149 Y111.532
G1 F1200 X128.849 Y119.233 E70.03786
G0 F6000 X128.849 Y119.798
G1 F1200 X121.149 Y112.098 E70.40005
G0 F6000 X121.149 Y112.664
G1 F1200 X128.849 Y120.364 E70.76223
G0 F6000 X128.849 Y120.93
G1 F1200 X121.149 Y113.229 E71.12444
G0 F6000 X121.149 Y113.795
G1 F1200 X128.849 Y121.495 E71.48662
G0 F6000 X128.849 Y122.061
G1 F1200 X121.149 Y114.361 E71.84881
G0 F6000 X121.149 Y114.926
G1 F1200 X128.849 Y122.627 E72.21102
G0 F6000 X128.849 Y123.192
G1 F1200 X121.149 Y115.492 E72.5732
G0 F6000 X121.149 Y116.058
G1 F1200 X128.849 Y123.758 E72.93538
G0 F6000 X128.849 Y124.324
G1 F1200 X121.149 Y116.623 E73.29759
G0 F6000 X121.149 Y117.189
G1 F1200 X128.849 Y124.889 E73.65978
G0 F6000 X128.849 Y125.455
G1 F1200 X121.149 Y117.755 E74.02196
G0 F6000 X121.149 Y118.32
G1 F1200 X128.849 Y126.021 E74.38417
G0 F6000 X128.849 Y126.586
G1 F1200 X121.149 Y118.886 E74.74635
G0 F6000 X121.149 Y119.452
G1 F1200 X128.849 Y127.152 E75.10854
G0 F6000 X128.849 Y127.718
G1 F1200 X121.149 Y120.017 E75.47075
G0 F6000 X121.149 Y120.583
G1 F1200 X128.849 Y128.284 E75.83295
G0 F6000 X128.849 Y128.849
G1 F1200 X121.149 Y121.149 E76.19514
G0 F6000 X120.583 Y121.149
G1 F1200 X128.283 Y128.848 E76.5573
G0 F6000 X127.717 Y128.848
G1 F1200 X120.017 Y121.149 E76.91946
G0 F6000 X119.452 Y121.149
G1 F1200 X127.151 Y128.848 E77.2816
G0 F6000 X126.586 Y128.848
G1 F1200 X118.886 Y121.149 E77.64376
G0 F6000 X118.32 Y121.149
G1 F1200 X126.02 Y128.848 E78.00592
G0 F6000 X125.454 Y128.848
G1 F1200 X117.755 Y121.149 E78.36806
G0 F6000 X117.189 Y121.149
G1 F1200 X124.889 Y128.848 E78.73022
G0 F6000 X124.323 Y128.848
G1 F1200 X116.623 Y121.149 E79.09238
G0 F6000 X116.058 Y121.149
G1 F1200 X123.757 Y128.848 E79.45452
G0 F6000 X123.192 Y128.848
G1 F1200 X115.492 Y121.149 E79.81668
G0 F6000 X114.926 Y121.149
G1 F1200 X122.626 Y128.848 E80.17884
G0 F6000 X122.06 Y128.848
G1 F1200 X114.361 Y121.149 E80.54097
G0 F6000 X113.795 Y121.149
G1 F1200 X121.495 Y128.848 E80.90314
G0 F6000 X120.929 Y128.848
G1 F1200 X113.229 Y121.149 E81.2653
G0 F6000 X112.664 Y121.149
G1 F1200 X120.363 Y128.848 E81.62743
G0 F6000 X119.798 Y128.848
G1 F1200 X112.098 Y121.149 E81.98959
G0 F6000 X111.532 Y121.149
G1 F1200 X119.232 Y128.848 E82.35176
G0 F6000 X118.666 Y128.848
G1 F1200 X110.966 Y121.149 E82.71392
G0 F6000 X110.401 Y121.149
G1 F1200 X118.1 Y128.848 E83.07605
G0 F6000 X117.535 Y128.848
G1 F1200 X109.835 Y121.149 E83.43821
G0 F6000 X109.269 Y121.149
G1 F1200 X116.969 Y128.848 E83.80038
G0 F6000 X116.403 Y128.848
G1 F1200 X108.704 Y121.149 E84.16251
G0 F6000 X108.138 Y121.149
G1 F1200 X115.838 Y128.848 E84.52467
G0 F6000 X115.272 Y128.848
G1 F1200 X107.572 Y121.149 E84.88683
G0 F6000 X107.007 Y121.149
G1 F1200 X114.706 Y128.848 E85.24897
G0 F6000 X114.141 Y128.848
G1 F1200 X106.441 Y121.149 E85.61113
G0 F6000 X105.875 Y121.149
G1 F1200 X113.575 Y128.848 E85.97329
G0 F6000 X113.009 Y128.848
G1 F1200 X105.31 Y121.149 E86.33543
G0 F6000 X104.744 Y121.149
G1 F1200 X112.444 Y128.848 E86.69759
G0 F6000 X111.878 Y128.848
G1 F1200 X104.178 Y121.149 E87.05975
G0 F6000 X103.613 Y121.149
G1 F1200 X111.312 Y128.848 E87.42189
G0 F6000 X110.747 Y128.848
G1 F1200 X103.047 Y121.149 E87.78405
G0 F6000 X102.481 Y121.149
G1 F1200 X110.181 Y128.848 E88.14621
G0 F6000 X109.615 Y128.848
G1 F1200 X101.916 Y121.149 E88.50835
G0 F6000 X101.35 Y121.149
G1 F1200 X109.05 Y128.848 E88.87051
G0 F6000 X108.484 Y128.848
G1 F1200 X100.784 Y121.149 E89.23267
G0 F6000 X100.218 Y121.149
G1 F1200 X107.918 Y128.848 E89.59483
G0 F6000 X107.352 Y128.848
G1 F1200 X99.653 Y121.149 E89.95697
G0 F6000 X99.087 Y121.149
G1 F1200 X106.787 Y128.848 E90.31913
G0 F6000 X106.221 Y128.848
G1 F1200 X91.149 Y113.777 E91.02805
G0 F6000 X91.149 Y114.342
G1 F1200 X105.655 Y128.848 E91.71036
G0 F6000 X105.09 Y128.848
G1 F1200 X91.149 Y114.908 E92.36608
G0 F6000 X91.149 Y115.474
G1 F1200 X104.524 Y128.848 E92.99518
G0 F6000 X103.958 Y128.848
G1 F1200 X91.149 Y116.039 E93.59767
G0 F6000 X91.149 Y116.605
G1 F1200 X103.393 Y128.848 E94.17357
G0 F6000 X102.827 Y128.848
G1 F1200 X91.149 Y117.171 E94.72285
G0 F6000 X91.149 Y117.736
G1 F1200 X102.261 Y128.848 E95.24552
G0 F6000 X101.696 Y128.848
G1 F1200 X91.149 Y118.302 E95.74159
G0 F6000 X91.149 Y118.868
G1 F1200 X101.13 Y128.848 E96.21105
G0 F6000 X100.564 Y128.848
G1 F1200 X91.149 Y119.433 E96.6539
G0 F6000 X91.149 Y119.999
G1 F1200 X99.999 Y128.848 E97.07015
G0 F6000 X99.433 Y128.848
G1 F1200 X91.149 Y120.565 E97.45978
G0 F6000 X91.149 Y121.13
G1 F1200 X98.867 Y128.848 E97.82281
G0 F6000 X98.301 Y128.848
G1 F1200 X91.149 Y121.696 E98.15922
G0 F6000 X91.149 Y122.262
G1 F1200 X97.736 Y128.848 E98.46903
G0 F6000 X97.17 Y128.848
G1 F1200 X91.149 Y122.827 E98.75224
G0 F6000 X91.149 Y123.393
G1 F1200 X96.604 Y128.848 E99.00883
G0 F6000 X96.039 Y128.848
G1 F1200 X91.149 Y123.959 E99.23881
G0 F6000 X91.149 Y124.525
G1 F1200 X95.473 Y128.848 E99.44218
G0 F6000 X94.907 Y128.848
G1 F1200 X91.149 Y125.09 E99.61894
G0 F6000 X91.149 Y125.656
G1 F1200 X94.342 Y128.848 E99.76911
G0 F6000 X93.776 Y128.848
G1 F1200 X91.149 Y126.222 E99.89265
G0 F6000 X91.149 Y126.787
G1 F1200 X93.21 Y128.848 E99.98959
G0 F6000 X92.645 Y128.848
G1 F1200 X91.149 Y127.353 E100.05994
G0 F6000 X91.149 Y127.919
G1 F1200 X92.079 Y128.848 E100.10366
G0 F6000 X91.513 Y128.848
G1 F1200 X91.149 Y128.484 E100.12078
G1 F1500 E93.62078
G0 F6000 X90.71 Y128.484
G0 X90.81 Y120.74
G0 X89.335 Y120.74
G0 X100.653 Y119.347
G0 X99.21 Y120.74
G0 X98.849 Y120.911
G1 F1500 E100.12078
G1 F1200 X91.149 Y113.211 E100.48296
G0 F6000 X91.149 Y112.645
G1 F1200 X98.849 Y120.346 E100.84517
G0 F6000 X98.849 Y119.78
G1 F1200 X91.149 Y112.079 E101.20738
G0 F6000 X91.149 Y111.514
G1 F1200 X98.849 Y119.214 E101.56956
G0 F6000 X98.849 Y118.648
G1 F1200 X91.149 Y110.948 E101.93175
G0 F6000 X91.149 Y110.382
G1 F1200 X98.849 Y118.083 E102.29396
G0 F6000 X98.849 Y117.517
G1 F1200 X91.149 Y109.817 E102.65614
G0 F6000 X91.149 Y109.251
G1 F1200 X98.849 Y116.951 E103.01833
G0 F6000 X98.849 Y116.386
G1 F1200 X91.149 Y108.685 E103.38053
G0 F6000 X91.149 Y108.12
G1 F1200 X98.849 Y115.82 E103.74272
G0 F6000 X98.849 Y115.254
G1 F1200 X91.149 Y107.554 E104.1049
G0 F6000 X91.149 Y106.988
G1 F1200 X98.849 Y114.689 E104.46711
G0 F6000 X98.849 Y114.123
G1 F1200 X91.149 Y106.423 E104.8293
G0 F6000 X91.149 Y105.857
G1 F1200 X98.849 Y113.557 E105.19148
G0 F6000 X98.849 Y112.992
G1 F1200 X91.149 Y105.291 E105.55369
G0 F6000 X91.149 Y104.726
G1 F1200 X98.849 Y112.426 E105.91587
G0 F6000 X98.849 Y111.86
G1 F1200 X91.149 Y104.16 E106.27806
G0 F6000 X91.149 Y103.594
G1 F1200 X98.849 Y111.295 E106.64026
G0 F6000 X98.849 Y110.729
G1 F1200 X91.149 Y103.028 E107.00247
G0 F6000 X91.149 Y102.463
G1 F1200 X98.849 Y110.163 E107.36466
G0 F6000 X98.849 Y109.598
G1 F1200 X91.149 Y101.897 E107.72686
G0 F6000 X91.149 Y101.331
G1 F1200 X98.849 Y109.032 E108.08907
G0 F6000 X98.849 Y108.466
G1 F1200 X91.149 Y100.766 E108.45126
G0 F6000 X91.149 Y100.2
G1 F1200 X98.849 Y107.9 E108.81344
G0 F6000 X98.849 Y107.335
G1 F1200 X91.149 Y99.634 E109.17565
G0 F6000 X91.149 Y99.069
G1 F1200 X98.849 Y106.769 E109.53783
G0 F6000 X98.849 Y106.203
G1 F1200 X91.149 Y98.503 E109.90002
G0 F6000 X91.149 Y97.937
G1 F1200 X98.849 Y105.638 E110.26223
G0 F6000 X98.849 Y105.072
G1 F1200 X91.149 Y97.372 E110.62441
G0 F6000 X91.149 Y96.806
G1 F1200 X98.849 Y104.506 E110.98659
G0 F6000 X98.849 Y103.941
G1 F1200 X91.149 Y96.24 E111.3488
G0 F6000 X91.149 Y95.675
G1 F1200 X98.849 Y103.375 E111.71099
G0 F6000 X98.849 Y102.809
G1 F1200 X91.149 Y95.109 E112.07317
G0 F6000 X91.149 Y94.543
G1 F1200 X98.849 Y102.244 E112.43538
G0 F6000 X98.849 Y101.678
G1 F1200 X91.149 Y93.978 E112.79756
G0 F6000 X91.149 Y93.412
G1 F1200 X98.849 Y101.112 E113.15975
G0 F6000 X98.849 Y100.547
G1 F1200 X91.149 Y92.846 E113.52196
G0 F6000 X91.149 Y92.28
G1 F1200 X98.849 Y99.981 E113.88416
G0 F6000 X98.849 Y99.415
G1 F1200 X91.149 Y91.715 E114.24635
